X: 1117
T: A Scotch Horn pipe
%R: triple hornpipe
B: Henry Playford "Apollo's Banquet", London 1687 (5th Edition)
F: https://archive.org/details/apollosbanquetco01rugg
Z: 2017 John Chambers <jc:trillian.mit.edu>
M: 9/8
L: 1/8
K: G
% - - - - - - - - - -
G2 |\
(B2d2)g2 (Bc)(dB)g2 d2B2G2 | (Bc)(dB)g2 (Bc)(dB)g2 f4A2 |\
(Bc)(dB)d2 (Bc)(dB) g2d2B2G2 | e3ce2 d3Bd2 f4A2 |
B2d2ef g3fe2 d2(Bc)(dB) | e2(cd)(ec) d2(Bc)(dB) f4A2 |\
(Bc)(dB)d2 (Bc)(dB)g2 d2B2G2 | (Bc)(dB)d2 (Bc)(dB)g2 f4A2 |
(Bc)(dB)d2 (Bc)(dB)g2 d3Bd2 | e3ce2 d3Bd2 f4A2 |\
G2g2B2 g3Bg2 B2g2B2 | G2g2B2 g3Bg2 A2f2A2 |
G2g2B2 g3Bg2 B2g2B2 | A2f2A2 f3A fg f4A2 |\
d4(ed) (ed)(cB)g2 d2B2G2 | d4(ed) (ed)(cB)g2 f4A2 |
d4(ed) (ed)(cB)g2 d3Bd2 | e3ce2 d3Bd2 f4A2 |\
(B2d2)(g2 g2)(fg)(ge) g2G2g2 | (B2d2)(g2 g2)(ef)(ge) f4A2 |
(B2d2)(g2 g2)(ef)(ge) d2(Bc)(dB) | e2(cd)(ec) d2(Bc)(dB) f4A2 |] y6y6y6 y6y6y6 y6y6y6 y6y6y6
% - - - - - - - - - -

%%sep 1 1 500
%%sep 1 1 500

